icon-themes/sifr_svg/cmd/lc_quit.svg

<svg viewBox="0 0 24 24" xmlns="http://www.w3.org/2000/svg"><path d="m12 2c-5.5228475 0-10 4.4771525-10 10 0 5.522847 4.4771525 10 10 10 2.491325-.0068 4.865407-.941769 6.680266-2.5831l-1.408782-1.4169c-1.456232 1.284288-3.32984 1.995134-5.271484 2-4.418278 0-8-3.581722-8-8s3.581722-8 8-8c1.94501.00249 3.822493.713494 5.28125 2l1.281003-1.5287765c-1.800046-1.5736036-4.125358-2.4664605-6.562253-2.4712235zm4 5v1c0 .25689.12983.52846.3125.71875l2.509766 2.28125h-8.822266v2h8.822266l-2.509766 2.28125c-.18267.1903-.3125.352551-.3125.71875v1h.414062.585938c.30945 0 .55232-.0903.75-.28125 1.083468-.820637 3.166535-2.930541 4.25-3.888672v-1.705078l-4.25-3.84375c-.19768-.19095-.373167-.28125-.75-.28125h-.585938z" fill="#555753"/></svg>

<svg xmlns="http://www.w3.org/2000/svg" viewBox="0 0 24 24">
  <path
     style="fill:#555753"
     d="M 12,2 C 6.4771525,2 2,6.4771525 2,12 c 0,5.522847 4.4771525,10 10,10 2.491325,-0.0068 4.865407,-0.941769 6.680266,-2.5831 L 17.271484,18 C 15.815252,19.284288 13.941644,19.995134 12,20 7.581722,20 4,16.418278 4,12 4,7.581722 7.581722,4 12,4 c 1.94501,0.00249 3.822493,0.713494 5.28125,2 L 18.562253,4.4712235 C 16.762207,2.8976199 14.436895,2.004763 12,2 Z m 4,5 v 1 c 0,0.25689 0.12983,0.52846 0.3125,0.71875 L 18.822266,11 H 10 v 2 h 8.822266 L 16.3125,15.28125 C 16.12983,15.47155 16,15.633801 16,16 v 1 H 16.414062 17 c 0.30945,0 0.55232,-0.0903 0.75,-0.28125 1.083468,-0.820637 3.166535,-2.930541 4.25,-3.888672 V 11.125 L 17.75,7.28125 C 17.55232,7.0903 17.376833,7 17,7 h -0.585938 z"
     />
</svg>
